X:1
T:Del Destin non dee lagnarsi (Bajazet, act 1, scene 1, RV 703)
T:Del Destin non dee lagnarsi (Bajazet, act 1, scene 1, RV 703)
T:Antonio Vivaldi (1678-1741) Arrangement Engin Mehmetli
T:2018
T:2018
T:2018
T:2018
C:Antonio Vivaldi (1678-1741) Arrangement Engin Mehmetli
Z:2018
%%score 1 { ( 2 5 ) | ( 3 4 ) }
L:1/8
M:2/4
K:Eb
V:1 bass nm="Baritone\n(Bajazet)"
V:2 treble nm="Piano"
V:5 treble 
V:3 bass 
V:4 bass 
V:1
"^Allegro" z4 | z4 | z4 | z4 | z4 | z4 | z4 | z4 | z4 | z4 | z4 | z4 | z4 | z4 | z4 | z4 | z4 | %17
w: |||||||||||||||||
 z4 | z4 | z4 | z4 | B,2 G,2 | E,4 | G,4 | B,3 C/D/ | E E, z G, | A,/F,/ B,- B,/A,/G,/F,/ | %27
w: ||||Del de-|stin|non|dee la- *|gnar- si, non|dee * la- * * * *|
 G,/E,/ E2 G, | A,/F,/ B,- B,/A,/G,/F,/ | G,/F,/ E, z2 | B,2 B,2 | B, =A,/ B,/ C/B,/ C/A,/ | %32
w: gnar- * * *||* * si.|chi~ha nel|pet- to un 'al- * ma *|
 B,=A,/B,/C/B,/C/A,/ | B, =A,/ G,/ F, E, | E, D, z2 | B,,2 D,F, | B, D/E/ F F, | %37
w: for- * * * * * *|* te, un 'al- ma|for- te,|e l'as- *|pet- to * del- la|
 G,E,/F,/G,/=A,/B, | =A,F,/G,/A,/B,/C | B,G,/=A,/B,/C/D | C=A,/B,/C/D/E | D C/B,/ =A,/G,/ F,/E,/ | %42
w: mor- * * * * *||||* te * non * pa- *|
 D, B, C B,/=A,/ | B,2 z2 | z4 | z4 | z4 | z4 | z4 | z4 | z4 | B,2 G,2 | E,4 | G,4 | B,3 C/_D/ | %55
w: ven- ta~un cuor di *|re.||||||||Del de-|stin|non|dee~ la- *|
 C/B,/ A, z2 | C2 =A,2 | F,4 | =A,4 | C3 D/E/ | D/C/ B, z G, | A,/F,/ B,2 F, | G,/E,/ E2 G, | %63
w: gnar- * si|chi~ha nel|pet-|to~un'|al- ma *|for- * te, un'|al- * * ma|for- * * *|
 A,/F,/ B,2 F, | G,/F,/E, B, B, | C/B,/ A,/B,/ C C | D/C/ B,/C/ D D | E D/C/ B,/A,/ G,/F,/ | %68
w: |te, _ _ e l'as-|pet- * to * del- la|mor- * te * non pa-|ven- ta * non * pa- *|
 G, F,/E,/ F, D, | E,2 z G, | F,D,/E,/F,/G,/A, | G,E,/F,/G,/A,/B, | A,F,/G,/A,/B,/C | %73
w: ven- ta un cuor di|re, l'as-|pet- to * del- * la|mor- * * * * *||
 B,G,/A,/B,/C/D | EDCB, | A,G,F,E, | B,2 z2 |{C} (B,/=A,/)B,{C} (B,/A,/B,) | %78
w: |||te.|non * * pa- * *|
{C} (B,/=A,/)B,{C} (B,/A,/)B, |{C} (B,/=A,/)B,{C} (B,/A,/)B, | ED/C/ B, A, | G,F,/E,/F, D, | %82
w: ven- * * ta, * *|non * * pa- * *|ven- * * ta un|cuor * * * di|
 E,2 z2 | z4 | z4 | z4 | z4 | z4 | z4 | z4 | z4 | z4 | z4 | z4 |!p! D2 B,2 | G,2 z G, | %96
w: re.||||||||||||Il mo-|rir so-|
 ^F,/G,/=A,/B,/C A, | B,/=A,/ G, z2 | D2 B,2 | G,4 | B,4 | D2 D,2 | E,2 C,2 | G,3 G, | %104
w: lo _ _ _ _ m'a-|van- * za,|e~il mio|ca-|ro~a-|ma- to|peg- no|fi- do|
 E{D} C{B,} =A, G, | G, ^F, D D, | E,>DC/B,/=A,/G,/ | ^F,>ED/C/B,/=A,/ | B, =A,/ G,/ A, ^F, | %109
w: pren- ce~a te con-|se- gno, tu poi|l'al- * * * * *|ma, _ _ _ _ _|l'al ma an- cor per|
!f! G, B,, C, D, |"^Da Capo" !fermata!G,,4 |] %111
w: me, an- cor per|me.|
V:2
 E>c B/A/G/F/ | E>e d/c/B/!1!A/ | !1!G>g f/e/d/c/ | B3 c/d/ | eE z G | A/F/B,- B,/c/B/A/ | %6
 G/E/G,- G,/B/e/G/ | A/F/B,- B,/!5!c/!4!B/!3!A/ | !4!G/F/E z2 | b=a/g/ f/e/d/c/ | BB, DF | %11
 !3!B/c/d/e/ fF | G/E/G,- G,/!5!d/!4!c/!3!B/ | !5!=A/F/=A,- A,/e/d/c/ | B/G/B,- B,/!3!f/e/d/ | %15
 !4!c/=A/F- F/e/d/c/ | d/B/F- F/b/f/d/ | c/=A/F- F/e/d/c/ | d/B/F/d/ c/=A/F/c/ | %19
 d/B/F/d/ c/=A/F/c/ | B2 z2 | B>c B/A/G/F/ | E>e d/c/B/A/ | G>g f/e/d/c/ | B3 c/d/ | eE z G | %26
 A/F/B,- B,/c/B/A/ | G/E/G,- G,/B/e/G/ | A/F/B,- B,/c/B/A/ | G/E/B,- B,/B/e/g/ | [FBd]2 [FBd]2 | %31
 d(!3!c/!5!d/) (!4!e/!3!d/)(!4!e/!2!c/) | d(c/d/) (e/d/)(e/c/) | dc/B/ =AG | GF z2 | B,2 DF | %36
 Bd/e/ fF | G/E/B,- B,/!3!G/=A/B/ | =A/F/C- C/!3!A/B/c/ | B/G/D- D/!3!B/c/d/ | c/=A/E- E/c/d/e/ | %41
 b=a/g/ f/e/d/c/ | Bb ef | B>G F/E/D/C/ | B,>B =A/G/F/E/ | D>d c/B/=A/G/ | F>g f/e/d/c/ | %47
 d/B/F- F/f/b/d/ | c/=A/F- F/f/=a/c/ | [Fd][db] c[cf=a] |!>(! B>g f/e/d/c/!>)! | B>c B/A/G/F/ | %52
 E>e d/c/B/A/ | G>g f/e/d/c/ | B3 c/_d/ | c>a g/f/e/d/ | c>d c/B/=A/G/ | F>f e/d/c/B/ | %58
 =A>=a g/f/e/d/ | c3 d/e/ | d/c/B z G | A/F/B,- B,/c/B/A/ | G/E/B,- B,/B/e/G/ | A/F/B,- B,/c/B/A/ | %64
 G/F/E BB | c/B/A/B/ cc | d/c/B/c/ dd | !3!ed/c/ !3!B/A/G/!3!F/ | GF/E/ FD | E2 z G | %70
 F/D/B,- B,/F/G/A/ | G/E/B,- B,/G/A/B/ | A/F/B,- B,/A/B/c/ | B/G/B,- B,/B/c/d/ | ed cB | AG FE | %76
 !trill(!TB4 |{c} (B/=A/)B{c} (B/A/B) |{c} (B/=A/)B{c} (B/A/)B |{c} (B/=A/)B{c} (B/A/)B | %80
 ed/c/ BA | GF/E/ FD | E>c B/A/G/F/ | E>e d/c/B/A/ | G>g f/e/d/c/ | B3 c/d/ | eE z G | %87
 A/F/B,- B,/c/B/A/ | G/E/G,- G,/B/e/G/ | A/F/B,- B,/c/B/A/ | GE GB | ed/c/ B/A/G/F/ | GE FD | %93
 !fermata!E2"^Fine." z2 | d>e d/c/B/=A/ | G>d c/B/=A/G/ | ^F/G/=A/B/ cA | B>g f/e/d/c/ | %98
 B>e d/c/B/=A/ | G>g f/e/d/c/ | B>!4!b !3!=a/!1!g/!3!^f/=e/ | d>c B/=A/G/F/ | E2 C2 | G3 G | %104
 e{d}c{B} =AG | G^F dD | E>d c/B/=A/G/ | ^F>e d/c/B/=A/ | B=A/G/ A^F | GB, CD | !fermata!G,4 |] %111
V:3
 z E,/D,/ E,E,, | z E,/D,/ E,E,, | z E,/D,/ E,E,, | z E,/D,/ E,E,, | z E,/D,/ E,E,, | %5
 z B,/A,/ B,B,, | z B,/A,/ B,B,, | z B,/A,/ B,B,, | z E,/D,/ E,E,, | z4 | B,=A,/G,/ F,/E,/D,/C,/ | %11
 B,,B,,/C,/ D,B,, | z E,/D,/ E,=E, | z F,/E,/ F,^F, | z G,/F,/ G,E, | z F,/E,/ F,F,, | %16
 z F,/E,/ F,F,, | z F,/E,/ F,F,, | B,,/C,/D,/E,/ F,F,, | B,,/C,/D,/E,/ F,F,, | B,,2 z2 | %21
 E,,E,/D,/ E,E,, | z E,/D,/ E,E,, | z E,/D,/ E,E,, | z E,/D,/ E,E,, | z E,/D,/ E,E,, | %26
 z B,,/A,,/ B,,B,, | z B,,/A,,/ B,,B,, | z B,,/A,,/ B,,B,, | z E,/D,/ E,E, | z B,,/=A,,/ B,,B,, | %31
 B,,B,, F,F,, | B,,B,, F,F,, | B,,2 B,,2 | B,,B,,/=A,,/ B,,B,, | B,,2 D,F, | B,D/E/ FF, | %37
 E,E, E,E,, | z F, F,F,, | z G, G,G,, | z =A, A,F, | B,=A,/G,/ F,/E,/D,/C,/ | B,,B, E,F, | %43
 B,,B,,/=A,,/ B,,B,, | z B,,/=A,,/ B,,B,, | z B,,/=A,,/ B,,B,, | z B,,/=A,,/ B,,B,, | %47
 z B,,/=A,,/ B,,B,, | z F,/E,/ F,F, | B,,B,, F,F,, | B,,B,,/=A,,/ B,,B,, | z E,/D,/ E,E,, | %52
 z E,/D,/ E,E,, | z E,/D,/ E,E,, | z E,/D,/ E,E,, | z A,/G,/ A,A,, | z F,/E,/ F,F,, | %57
 z F,/E,/ F,F,, | z F,/E,/ F,F,, | z F,/E,/ F,F,, | z B,/A,/ G,E, | z B,,/A,,/ B,,B,, | %62
 z B,,/A,,/ B,,B,, | z B,,/A,,/ B,,B,, | z E,/D,/ E,E,, | z A,/G,/ A,A,, | z B,/C/ B,A, | %67
 [G,B,][A,C] [D,F,][B,,D,] | E,G,, A,,B,, | E,,E,/D,/ E,E,, | z [B,,D,] [B,,D,][B,,D,] | %71
 z [B,,E,] [B,,E,][B,,E,] | z [B,,F,] [B,,F,][B,,F,] | z [B,,G,] [B,,G,][B,,G,] | ED CB, | %75
 A,G, F,E, | B,B,,/A,,/ B,,B,, | B,B, A,A, | G,G, F,F, | E,E, D,D, | C,C, D,D, | E,G,, A,,B,, | %82
 E,,E,/D,/ E,E,, | z E,/D,/ E,E,, | z E,/D,/ E,E,, | z E,/D,/ E,E,, | z E,/D,/ E,E,, | %87
 z B,,/A,,/ B,,B,, | z B,,/A,,/ B,,B,, | z B,,/A,,/ B,,B,, | E,E, G,B, | ED/C/ B,/A,/G,/F,/ | %92
 E,G,, A,,B,, | !fermata!E,,2 z2 |!p! z G,/^F,/ G,G,, | z G,/^F,/ G,G,, | z ^F,/=E,/ D,D,, | %97
 z G,/^F,/ G,G,, | z G,/^F,/ G,G,, | z G,/^F,/ G,G,, | z G,/^F,/ G,G,, | z G,/^F,/ G,G,, | %102
 z C,/B,,/ C,C,, | z B,/=A,/ B,G, | z C/B,/ CC, | z D,/C,/ B,,G,, | z C,/B,,/ C,C,, | %107
 z D,/C,/ D,D,, | [G,,D,]B,, C,D, |!f! G,,B,, C,D, | !fermata!G,,4 |] %111
V:4
 x G, G, z | z G, G, z | x G, G, z | x G, G, z | x G, G, z | x D D z | x E E z | x D D z | %8
 x B, B, z | x4 | x4 | x4 | x B, B,C | x C CD | x D DG, | x C C z | x D D z | x C C z | x4 | x4 | %20
 x4 | x G, G, z | z G, G, z | x B, B, z | x B, B, z | x B, B, z | x D, D, z | x G, G, z | %28
 x D, D, z | x G, G, z | x4 | x4 | x4 | x4 | x4 | x4 | x4 | x G, G, z | x =A, A, z | x B, B, z | %40
 x C C=A, | x4 | x4 | x D,/C,/ D,D, | x D,/C,/ D,D, | x D,/C,/ D,D, | x D,/C,/ D,D, | %47
 x D,/C,/ D,D, | x =A,/G,/ A,A, | x4 | D,D,/C,/ D,D, | x G, G, z | x G, G, z | x B, B, z | %54
 x G, G, z | x E E z | x =A, A, z | x =A, A, z | x C C z | x =A, A, z | x F B,G, | x D, D,D, | %62
 x G, G, z | x D, D, z | x B, G, z | x E E z | x F FF | x4 | x4 | z G, G, z | x4 | x4 | x4 | x4 | %74
 x4 | x4 | x4 | x4 | x4 | x4 | x4 | x4 | x G, G, z | x G, G, z | x B, B, z | x G, G, z | %86
 x G, G, z | x D, D,D, | x E, E,E, | x D, D,D, | x4 | x4 | x4 | x4 | x B, B, z | x B, B, z | %96
 x =A, ^F, z | x D D z | x D D z | x D D z | x D D z | x B, B, z | x G, G, z | x D DB, | x4 | %105
 x =A, G, z | x G, G, z | x ^F, F, z | x4 | x4 | x4 |] %111
V:5
 x4 | x4 | x4 | x4 | x4 | x4 | x4 | x4 | x4 | x4 | x4 | x4 | x4 | x4 | x4 | x4 | x4 | x4 | F2 B=A | %19
 F2 B=A | x4 | x4 | x4 | x4 | x4 | x4 | x4 | x4 | x4 | x4 | x4 | F2 =A2 | F2 =A2 | F2 F2 | %34
 z D/C/ DD | x4 | x4 | x4 | x4 | x4 | x4 | x4 | x4 | x4 | x4 | x4 | x4 | x4 | x4 | x4 | x4 | x4 | %52
 x4 | x4 | x4 | x4 | x4 | x4 | x4 | x4 | x4 | x4 | x4 | x4 | x4 | x4 | x4 | x4 | B,B, CB, | x4 | %70
 x4 | x4 | x4 | x4 | x4 | x4 | x4 | x4 | x4 | x4 | x4 | x4 | x4 | x4 | x4 | x4 | x4 | x4 | x4 | %89
 x4 | x4 | x4 | x4 | x4 | x4 | x4 | x4 | x4 | x4 | x4 | x4 | x4 | x4 | x4 | x4 | x4 | x4 | x4 | %108
 x4 | x4 | x4 |] %111

